!!!ONB: MCCC : IBB0001_00 : Extracted Monophonic Melody
!!!COM: Bartók, Béla
!!!OTL: Allegro Barbaro
!!!SCT: Sz.49 ; BB 63
!!!ODT: 1911///
**kern
*staff1
=1
*clefG2
*k[]
*a:
*M2/4
4a
4a
=2
4a
4a
=3
4a
4a
=4
4a
4a[
=5
8a]
8a
4a
=6
4a
4a
=7
4g
4a
=8
2a[
=9
4a]
4a
=10
4a
4a
=11
4cc
4a
=12
2a[
=13
8a]
8a
8cc
8a
=14
8g
8a
8cc
8a
=15
8g
8a
8cc
8a
=16
4g
4f
=17
2e
=18
2e[
=19
4e]
4ee
=20
4ee
4ee
=21
4dd
4ee
=22
2ee[
=23
4ee]
4ee
=24
4ee
4ee
=25
4gg
4ee
=26
2ee[
=27
8ee]
8ee
8gg
8ee
=28
8dd
8ee
8gg
8ee
=29
8dd
8ee
8gg
8ee
=30
8dd
8cc
8b
8a
=31
8g
8a
8cc
8a
=32
8g
8a
8cc
8a
=33
8g
8a
8cc
8a
=34
4g
4f
=35
4.A
8f
=36
4g
4f
=37
8A
8B
4c
=38
4g
4f
=39
4.A
8f
=40
4g
4f
=41
8c
8B
4A
=42
4gg
4ff
=43
4.a
8ff
=44
4gg
4ff
=45
8a
8b
4cc
=46
4gg
4ff
=47
4.a
8ff
=48
4gg
4ff
=49
8cc
8b
4a[
=50
4a]
4A
=51
4A
4A
=52
4A
4A
=53
4A
4A
=54
4A
4A
=55
4A
4A
=56
4A
4A
=57
4.A
8A
=58
4ccc
8aa
8bb
=59
4ccc
8aa
8bb
=60
8ccc
8bb
8aa
8gg#
=61
4ff#
4ff#
=62
4ff#
4ff#
=63
4.ff#[
8ff#]
=64
4A
4A
=65
4A
4A
=66
4.A
8A
=67
8eee
8ddd
8ccc
8bb
=68
8aa
8gg#
4ff#
=69
8eee
8ddd
8ccc
8bb
=70
8aa
8gg#
4ff#
=71
4ff#
4ff#
=72
4ff#[
4ff#]
=73
4A
4A
=74
4A
4A
=75
4.A
8A
=76
8ggg
8fff#
8eee
8ddd#
=77
*M3/4
8ccc#
8eee-
8ccc#
8bb
4aa
=78
*M2/4
8ggg
8fff#
8eee
8ddd#
=79
8ccc#
8eee-
8ccc#
8bb
=80
4aa
4aa
=81
4aa
4aa
=82
4aa[
4aa]
=83
4.A
8A
=84
8eee
8ddd#
8ccc#
8bb
=85
8aa
8bb
4ccc#
=86
8eee
8ddd#
8ccc#
8bb
=87
8aa
8gg#
4ff#
=88
4ff#
4ff#
=89
4.ff#[
8ff#]
=90
4A
4A
=91
4A
4A
=92
4A
4A
=93
4A
4A
=94
4A
4A
=95
4A
4A
=96
4A
4A
=97
4A
4A
=98
4A
4A
=99
4A
4A
=100
4A
4A[
=101
4A]
4A
=102
4A
4A
=103
4G
4A
=104
2A[
=105
4A]
4A
=106
4A
4A
=107
4c
4A
=108
2A[
=109
8A]
8A
8c
8A
=110
8G
8A
8c
8A
=111
8G
8A
8c
8A
=112
8G
8A
8B
8c#
=113
8d
8c
4d
=114
2d[
=115
4d]
4d
=116
4d
4d
=117
4c
4d
=118
2d[
=119
4d]
4d
=120
4d
4d
=121
4f
4d[
=122
4d]
4d
=123
4c
4e
=124
4d
4f
=125
4e
4g
=126
4f#
4a
=127
8g#
8a#
4b
=128
2b
=129
2b[
=130
2b]
=131
8ccc
8bb
4aa
=132
8e
8f#
4g
=133
2g[
=134
2g]
=135
8ccc
8bb
4aa
=136
8c#
8d#
4e
=137
2e[
=138
2e]
=139
8ccc
8bb
8aa
8bb
=140
8ccc
8bb
4aa
=141
8ccc
8bb
8aa
8ddd
=142
8ccc
8bb
4aa
=143
8B-
8c
4c#
=144
2c#[
=145
2c#]
=146
2r
=147
2r
=148
2r
=149
2r
=150
2ccc[
=151
2ccc]
=152
*M3/4
2.aa
=153
*M2/4
2r
=154
8r
8a
8cc
8a
=155
2r
=156
8r
8A
8c
8A
=157
8r
8A
8B-
8A
=158
8r
8A
8c
8A
=159
8r
8A
8B-
8A
=160
8r
8A
8e-
8A
=161
4.G
16F
32r
32a
=162
4.G
16F
32r
32g
=163
4.G
16F
32r
32f
=164
4.G
8F
=165
2r
=166
2r
=167
2r
=168
2r
=169
8r
8e
8f
8e
=170
8r
8e
8g
8e
=171
8r
8e
8f
8e
=172
8r
8e
8b-
8e
=173
4.d
16c
32r
32ee
=174
4.d
16c
32r
32dd
=175
4.d
16c
32r
32cc
=176
4.d
16c
32d
32f
=177
8a
8f
24d
24f
24d
8B
=178
4.A
16G
32r
32a
=179
4.A
16G
32r
32g
=180
4.A
16G
32A
32c
=181
8e
8c
24A
24c
24A
8F#
=182
4G
4F
=183
4.AA
8F
=184
4G
4F
=185
8AA
8BB
4C
=186
4G
4F
=187
4.AA
8F
=188
4G
4F
=189
8C
8BB
4AA
=190
4g
4f
=191
4.A
8f
=192
4g
4f
=193
8A
8B
4c
=194
4gg
4ff
=195
4.a
8ff
=196
4gg
4ff
=197
8g
8a
8b
8cc
=198
4ggg[
4ggg]
=199
8g
8a
8b
8cc
=200
4ggg[
4ggg]
=201
8g
8a
8b
8cc
=202
8ggg
8ggg
8ggg
8ggg
=203
8ggg
8ggg
8ggg
8ggg
=204
8ggg
8ggg
8ggg
8ggg
=205
8ggg
8ggg
8ggg
8ggg
=206
8gg
8gg
8gg
8gg
=207
8gg
8gg
8gg
8gg
=208
8gg
8gg
8gg
8gg
=209
8gg
8gg
8gg
8gg
=210
8ff]
8g
8a
8b
=211
8cc
8dd
8ee
8ff
=212
8gg
8aa
8bb
8ccc
=213
8ddd
8eee
8fff
8ggg
=214
8cccc
8bbb
4aaa
=215
4aaa
4aaa
=216
4aaa
4aaa
=217
4aaa
4aaa[
=218
4aaa]
4a
=219
4a
4a
=220
4a
4a
=221
4a
4a
=222
4.a
8a
=223
2r
=224
2r
==
*-
